svg/fluentui-system-icons/ic_fluent_building_retail_20_regular.svg

<svg width="20" height="20" viewBox="0 0 20 20" fill="none" xmlns="http://www.w3.org/2000/svg">
<path d="M5.5 7C5.22386 7 5 7.22386 5 7.5V10.5C5 10.7761 5.22386 11 5.5 11H14.5C14.7761 11 15 10.7761 15 10.5V7.5C15 7.22386 14.7761 7 14.5 7H5.5ZM6 10V8H14V10H6ZM11.5 12C11.2239 12 11 12.2239 11 12.5V14.5C11 14.7761 11.2239 15 11.5 15H14.5C14.7761 15 15 14.7761 15 14.5V12.5C15 12.2239 14.7761 12 14.5 12H11.5ZM12 14V13H14V14H12ZM2 4.5C2 3.67157 2.67157 3 3.5 3H16.5C17.3284 3 18 3.67157 18 4.5C18 5.15311 17.5826 5.70873 17 5.91465V16.5C17 16.7761 16.7761 17 16.5 17H3.5C3.22386 17 3 16.7761 3 16.5V5.91465C2.4174 5.70873 2 5.15311 2 4.5ZM3.5 4C3.22386 4 3 4.22386 3 4.5C3 4.77614 3.22386 5 3.5 5H16.5C16.7761 5 17 4.77614 17 4.5C17 4.22386 16.7761 4 16.5 4H3.5ZM4 6V16H5V12.5C5 12.2239 5.22386 12 5.5 12H9.5C9.77614 12 10 12.2239 10 12.5V16H16V6H4ZM6 16H9V13H6V16Z" fill="#212121"/>
</svg>

<svg xmlns="http://www.w3.org/2000/svg" width="20" height="20"><path d="M5.5 7a.5.5 0 0 0-.5.5v3a.5.5 0 0 0 .5.5h9a.5.5 0 0 0 .5-.5v-3a.5.5 0 0 0-.5-.5h-9Zm.5 3V8h8v2H6Zm5.5 2a.5.5 0 0 0-.5.5v2a.5.5 0 0 0 .5.5h3a.5.5 0 0 0 .5-.5v-2a.5.5 0 0 0-.5-.5h-3Zm.5 2v-1h2v1h-2ZM2 4.5A1.5 1.5 0 0 1 3.5 3h13a1.5 1.5 0 0 1 .5 2.915V16.5a.5.5 0 0 1-.5.5h-13a.5.5 0 0 1-.5-.5V5.915A1.5 1.5 0 0 1 2 4.5ZM3.5 4a.5.5 0 0 0 0 1h13a.5.5 0 0 0 0-1h-13ZM4 6v10h1v-3.5a.5.5 0 0 1 .5-.5h4a.5.5 0 0 1 .5.5V16h6V6H4Zm2 10h3v-3H6v3Z"/></svg>
